Origami/64x64/apps/opera-developer.svg

<svg width="64" height="64" version="1" xmlns="http://www.w3.org/2000/svg">
 <path d="m32 15.001313a11.999657 15.999543 0 0 0 -11.999657 15.999543 11.999657 15.999543 0 0 0 0.03126 1.132788 11.999657 15.999543 0 0 1 11.967658 -15.131568 11.999657 15.999543 0 0 1 11.967658 14.863576 11.999657 15.999543 0 0 0 0.032 -0.863976 11.999657 15.999543 0 0 0 -11.999659 -15.999543zm-27.949202 16.999515c-0.0118 0.33399-0.050799 0.661981-0.050799 0.999971 4e-7 15.511558 12.487644 27.999201 27.999201 27.999201s27.999201-12.487643 27.999201-27.999201c0-0.33767-0.03904-0.665261-0.05078-0.999971-0.527985 15.041571-12.775635 26.999229-27.949202 26.999229-15.173967 0-27.421217-11.957658-27.949202-26.999229z" style="opacity:.2"/>
 <path d="m32 4.0016559c-15.511557 0-27.999201 12.487643-27.999201 27.9992 0 15.511558 12.487644 27.999201 27.999201 27.999201s27.999201-12.487643 27.999201-27.999201c0-15.511557-12.487644-27.9992-27.999201-27.9992zm0 11.999657a11.999657 15.999543 0 0 1 11.999657 15.999543 11.999657 15.999543 0 0 1 -11.999657 15.999544 11.999657 15.999543 0 0 1 -11.999657 -15.999544 11.999657 15.999543 0 0 1 11.999657 -15.999543z" style="fill:#cccccc"/>
 <path d="M 32 4.0019531 C 16.488443 4.0019531 4 16.488443 4 32 C 4 32.113553 4.0112847 32.224036 4.0175781 32.335938 C 4.3691113 17.134615 16.711164 5.0019531 32 5.0019531 C 47.288836 5.0019531 59.630889 17.134615 59.982422 32.335938 C 59.988797 32.224036 60 32.113553 60 32 C 60 16.488443 47.511557 4.0019531 32 4.0019531 z M 43.966797 32.869141 A 11.999657 15.999543 0 0 1 32 48 A 11.999657 15.999543 0 0 1 20.033203 33.136719 A 11.999657 15.999543 0 0 0 20 34 A 11.999657 15.999543 0 0 0 20.019531 34.503906 A 11.999657 15.999543 0 0 1 20.033203 34.136719 A 11.999657 15.999543 0 0 0 32 49 A 11.999657 15.999543 0 0 0 43.966797 33.869141 A 11.999657 15.999543 0 0 1 43.986328 34.515625 A 11.999657 15.999543 0 0 0 44 34 A 11.999657 15.999543 0 0 0 43.966797 32.869141 z" style="fill:#ffffff;opacity:.2"/>
</svg>

<svg xmlns="http://www.w3.org/2000/svg" width="64" height="64" version="1">
 <path style="opacity:0.2" d="m 32,15.001313 a 11.999657,15.999543 0 0 0 -11.999657,15.999543 11.999657,15.999543 0 0 0 0.03126,1.132788 11.999657,15.999543 0 0 1 11.967658,-15.131568 11.999657,15.999543 0 0 1 11.967658,14.863576 11.999657,15.999543 0 0 0 0.032,-0.863976 A 11.999657,15.999543 0 0 0 31.99926,15.002133 Z M 4.050798,32.000828 c -0.0118,0.33399 -0.050799,0.661981 -0.050799,0.999971 C 3.9999994,48.512357 16.487643,61 31.9992,61 47.510757,61 59.998401,48.512357 59.998401,33.000799 c 0,-0.33767 -0.03904,-0.665261 -0.05078,-0.999971 -0.527985,15.041571 -12.775635,26.999229 -27.949202,26.999229 -15.173967,0 -27.4212171,-11.957658 -27.949202,-26.999229 z"/>
 <path style="fill:#cccccc" d="m 32,4.0016559 c -15.511557,0 -27.9992006,12.4876431 -27.9992006,27.9992001 0,15.511558 12.4876436,27.999201 27.9992006,27.999201 15.511557,0 27.999201,-12.487643 27.999201,-27.999201 C 59.999201,16.489299 47.511557,4.0016559 32,4.0016559 Z M 32,16.001313 A 11.999657,15.999543 0 0 1 43.999657,32.000856 11.999657,15.999543 0 0 1 32,48.0004 11.999657,15.999543 0 0 1 20.000343,32.000856 11.999657,15.999543 0 0 1 32,16.001313 Z"/>
 <path style="opacity:0.2;fill:#ffffff" d="M 32 4.0019531 C 16.488443 4.0019531 4 16.488443 4 32 C 4 32.113553 4.0112847 32.224036 4.0175781 32.335938 C 4.3691113 17.134615 16.711164 5.0019531 32 5.0019531 C 47.288836 5.0019531 59.630889 17.134615 59.982422 32.335938 C 59.988797 32.224036 60 32.113553 60 32 C 60 16.488443 47.511557 4.0019531 32 4.0019531 z M 43.966797 32.869141 A 11.999657 15.999543 0 0 1 32 48 A 11.999657 15.999543 0 0 1 20.033203 33.136719 A 11.999657 15.999543 0 0 0 20 34 A 11.999657 15.999543 0 0 0 20.019531 34.503906 A 11.999657 15.999543 0 0 1 20.033203 34.136719 A 11.999657 15.999543 0 0 0 32 49 A 11.999657 15.999543 0 0 0 43.966797 33.869141 A 11.999657 15.999543 0 0 1 43.986328 34.515625 A 11.999657 15.999543 0 0 0 44 34 A 11.999657 15.999543 0 0 0 43.966797 32.869141 z"/>
</svg>
